<?xml version="1.0" encoding="UTF-8"?>
<map version="1.10" tiledversion="1.12.2" orientation="orthogonal" renderorder="right-down" width="30" height="40" tilewidth="16" tileheight="16" infinite="0" nextlayerid="3" nextobjectid="1">
 <editorsettings>
  <export target="pacman_new.tscn" format="tscn"/>
 </editorsettings>
 <tileset firstgid="1" source="tileset_pacman.tsx"/>
 <layer id="1" name="tiles" width="30" height="40">
  <data encoding="csv">
27,27,27,27,27,27,27,27,27,27,27,27,27,27,27,27,27,27,27,27,27,27,27,27,27,27,27,27,27,27,
27,0,0,0,0,0,0,0,0,0,0,0,0,0,0,0,0,0,0,0,0,0,0,0,0,0,0,0,0,27,
27,0,0,0,0,0,0,0,0,0,0,0,0,0,0,0,0,0,0,0,0,0,0,0,0,0,0,0,0,27,
27,0,0,0,0,0,0,0,0,0,0,0,0,0,0,0,0,0,0,0,0,0,0,0,0,0,0,0,0,27,
27,0,0,0,0,0,0,0,0,0,0,0,0,0,0,0,0,0,0,0,0,0,0,0,0,0,0,0,0,27,
27,0,0,0,0,0,0,0,0,0,0,0,0,0,0,0,0,0,0,0,0,0,0,0,0,0,0,0,0,27,
27,0,0,0,0,0,0,0,0,0,0,0,0,0,0,0,0,0,0,0,0,0,0,0,0,0,0,0,0,27,
27,115,116,116,116,116,116,116,116,116,116,116,116,116,17,16,46,116,116,116,116,116,116,116,116,116,116,116,117,27,
27,134,0,0,0,0,0,0,0,0,0,0,0,0,77,79,0,0,0,0,0,0,0,0,0,0,0,0,136,27,
27,134,0,178,97,97,179,0,178,97,97,97,179,0,77,79,0,178,97,97,97,179,0,178,97,97,179,0,136,27,
27,134,0,197,59,59,198,0,197,59,59,59,198,0,96,98,0,197,59,59,59,198,0,197,59,59,198,0,136,27,
27,134,0,0,0,0,0,0,0,0,0,0,0,0,0,0,0,0,0,0,0,0,0,0,0,0,0,0,136,27,
27,134,0,178,97,97,179,0,178,179,0,178,97,97,97,97,97,97,179,0,178,179,0,178,97,97,179,0,136,27,
27,134,0,197,59,59,198,0,83,85,0,197,59,59,60,58,59,59,198,0,83,85,0,197,59,59,198,0,136,27,
27,134,0,0,0,0,0,0,83,85,0,0,0,0,83,85,0,0,0,0,83,85,0,0,0,0,0,0,136,27,
27,153,154,154,154,154,9,0,83,96,97,97,179,0,83,85,0,178,97,97,98,85,0,7,154,154,154,154,155,27,
27,0,0,0,0,0,28,0,83,58,59,59,198,0,197,198,0,197,59,59,60,85,0,26,0,0,0,0,0,27,
27,0,0,0,0,0,28,0,83,85,0,0,0,0,0,0,0,0,0,0,83,85,0,136,0,0,0,0,0,27,
27,0,0,0,0,0,28,0,83,85,0,121,122,122,148,149,122,122,123,0,83,85,0,136,0,0,0,0,0,27,
237,46,46,46,46,46,47,0,197,198,0,140,0,0,143,145,0,0,142,0,197,198,0,45,116,116,116,116,116,237,
0,0,0,0,0,0,0,0,0,0,0,140,0,0,0,0,0,0,142,0,0,0,0,0,0,0,0,0,0,0,
237,8,8,8,8,8,9,0,178,179,0,140,0,0,0,0,0,0,142,0,178,179,0,7,8,8,8,8,8,237,
27,0,0,0,0,0,28,0,83,85,0,159,160,160,160,160,160,160,161,0,83,85,0,136,0,0,0,0,0,27,
27,0,0,0,0,0,28,0,83,85,0,0,0,0,0,0,0,0,0,0,83,85,0,136,0,0,0,0,0,27,
27,0,0,0,0,0,28,0,83,85,0,178,97,97,97,97,97,97,179,0,83,85,0,136,0,0,0,0,0,27,
27,115,116,116,116,116,47,0,197,198,0,197,59,59,60,58,59,59,198,0,197,198,0,45,116,116,116,116,117,27,
27,134,0,0,0,0,0,0,0,0,0,0,0,0,83,85,0,0,0,0,0,0,0,0,0,0,0,0,136,27,
27,134,0,178,97,97,179,0,178,97,97,97,179,0,83,85,0,178,97,97,97,179,0,178,97,97,179,0,136,27,
27,134,0,197,59,60,85,0,197,59,59,59,198,0,197,198,0,197,59,59,59,198,0,83,58,59,198,0,136,27,
27,134,0,0,0,83,85,0,0,0,0,0,0,0,0,0,0,0,0,0,0,0,0,83,85,0,0,0,136,27,
27,37,103,60,0,83,85,0,178,179,0,178,97,97,97,97,97,97,179,0,178,179,0,83,85,0,58,59,38,27,
27,18,65,98,0,197,198,0,83,85,0,197,59,59,60,58,59,59,198,0,83,85,0,197,198,0,96,97,19,27,
27,134,0,0,0,0,0,0,83,85,0,0,0,0,83,85,0,0,0,0,83,85,0,0,0,0,0,0,136,27,
27,134,0,178,97,97,97,97,98,96,97,97,179,0,83,85,0,178,97,97,98,96,97,97,97,97,179,0,136,27,
27,134,0,197,59,59,59,59,59,59,59,59,198,0,197,198,0,197,59,59,59,59,59,59,59,59,198,0,136,27,
27,134,0,0,0,0,0,0,0,0,0,0,0,0,0,0,0,0,0,0,0,0,0,0,0,0,0,0,136,27,
27,153,154,154,154,154,154,154,154,154,154,154,154,154,154,154,154,154,154,154,154,154,154,154,154,154,154,154,155,27,
27,0,0,0,0,0,0,0,0,0,0,0,0,0,0,0,0,0,0,0,0,0,0,0,0,0,0,0,0,27,
27,0,0,0,0,0,0,0,0,0,0,0,0,0,0,0,0,0,0,0,0,0,0,0,0,0,0,0,0,27,
27,27,27,27,27,27,27,27,27,27,27,27,27,27,27,27,27,27,27,27,27,27,27,27,27,27,27,27,27,27
</data>
 </layer>
</map>
